X:1
T:Title
%%score { ( 1 3 ) | ( 2 4 ) }
L:1/8
M:9/8
K:Db
V:1 treble nm="Grand Piano"
V:3 treble 
V:2 bass 
V:4 bass 
V:1
 z3 z3[Q:1/4=110] [DF]2 [EG] | [FA]3 [Fd]3 [DF]2 [EG] | [GB]3 [FA]3 [EG]2 [DF] | %3
 [CE]3- [CE]2 [DF] [EG]2 [CA] |[M:3/4] [DF]6 |[M:3/8] [FA]2 [FA] |[M:9/8] B3- B2 B d2 B | %7
 [FA]3 [DF]3 [EG]2 F | E3- E2 c B2 c |[M:7/8] A3- [EA]3 z |[M:3/8] A-[FA][EA] | %11
[M:9/8] [DA]3 [DF]3 [Fd]2 [DAc] | [DAc]3 [DGB]3 [Bd]c[DGB] | [DFA]3 [A,DF]3 .[A,EA]2 [A,DF] | %14
[M:3/4] [A,CE]6 |[M:3/8] A-[FA]A |[M:9/8] [FA]3 [DF]3 dc[Fd] | e3 B3 dc[D_FB] | %18
[M:5/4] [DFA]3 .[DF]3 [A,CF]3[K:bass] [G,CE] |[M:3/4] [F,D]6 |] %20
V:2
 z3 z3 [D,A,]2 [D,A,] | [D,D]3 [D,A,]3 [D,A,]2 [D,A,] | [D,D]3 [D,D]3 [D,A,]2 [D,A,] | %3
 [A,,A,]3- [A,,A,]2 [A,,A,] [A,,A,]2 [A,,A,] |[M:3/4] [D,A,]6 |[M:3/8] [D,D]2 [D,D] | %6
[M:9/8] [G,DG]3- [G,DG]2 [G,DG] [G,B,G]2 [G,DG] | [D,D]3 [D,A,]3 [C,A,]2 [D,A,D] | %8
 [E,A,C]3- [E,A,C]2 [E,A,E] [E,=G,D]2 [E,G,D] |[M:7/8] z z2 G,3 z |[M:3/8] z A,[A,,G,] | %11
[M:9/8] [D,F,]3 [D,A,]3 A,-[E,A,]F, | G,3 G,3 z AG, | D,3 D,3 z GE, |[M:3/4] A,,6 | %15
[M:3/8] z D[A,CE] |[M:9/8] [D,D]3 [D,A,]3 [D,A,]2 [D,C] | [G,B,G]3 [G,DG]3 [=G,_F]-[G,CF]G, | %18
[M:5/4] A,3 .A,3 A,,3 A,, |[M:3/4] D,6 |] %20
V:3
 x9 | x9 | x9 | x9 |[M:3/4] x6 |[M:3/8] x3 |[M:9/8] x9 | x9 | x9 |[M:7/8] [A,C]3 z z z2 | %10
[M:3/8] [CG] z z |[M:9/8] x9 | x9 | x9 |[M:3/4] x6 |[M:3/8] [EG] z z |[M:9/8] z3 z3 .F3 | x9 | %18
[M:5/4] x9[K:bass] x |[M:3/4] x6 |] %20
V:4
 x9 | x9 | x9 | x9 |[M:3/4] x6 |[M:3/8] x3 |[M:9/8] x9 | x9 | x9 |[M:7/8] A,,-A,,-A,,- A,,3 z | %10
[M:3/8] A,,2 z |[M:9/8] z3 z3 .D,3 | z3 z3 .[G,D]3 | z3 z3 .C,3 |[M:3/4] x6 |[M:3/8] A,2 z | %16
[M:9/8] x9 | z3 z3 .B,3 |[M:5/4] x10 |[M:3/4] x6 |] %20

